img/icon/headphones.svg

<svg xmlns="http://www.w3.org/2000/svg" width="100" height="100" viewBox="0 0 100 100"><path fill="#E37948" d="M50 0c27.614 0 50 22.386 50 50s-22.386 50-50 50-50-22.386-50-50 22.386-50 50-50z"/><g fill="#CC6D41"><path d="M70 33c-6.627 0-12 5.148-12 11.5 0 5.006 3.343 9.251 8 10.832v24.668c0 .504.385.959 1 1.311v6.689c0 .553.447 1 1 1v7.647c1.362-.526 2.698-1.104 4-1.743v-5.904c.553 0 1-.447 1-1v-6.689c.615-.352 1-.807 1-1.311v-24.668c4.658-1.581 8-5.826 8-10.832 0-6.352-5.372-11.5-12-11.5zM26 93.869v-15.869c.553 0 1-.447 1-1v-5.184c1.162-.413 2-1.512 2-2.816v-38c0-1.305-.838-2.402-2-2.816v-5.184c0-.552-.447-1-1-1v-15.869c-1.373.753-2.709 1.565-4 2.44v13.429c-.552 0-1 .448-1 1v5.184c-1.162.414-2 1.512-2 2.816v38c0 1.305.838 2.403 2 2.816v5.184c0 .553.448 1 1 1v13.43c1.291.874 2.627 1.686 4 2.439zM50 56.311c.615-.352 1-.807 1-1.311v-22.039c5.34-.261 8.842-2.593 10.613-5.975.775-.068 1.387-.814 1.387-1.736v-8.5c0-.902-.588-1.637-1.34-1.73-1.834-3.594-5.607-6.02-11.66-6.02-6.627 0-12 5.373-12 12 0 4.012 1.976 7.555 5 9.733v24.267c0 .504.385.959 1 1.311v6.689c0 .553.448 1 1 1v35.75c1.318.131 2.654.198 4 .225v-35.975c.553 0 1-.447 1-1v-6.689z"/></g><g fill="#E0E3E4"><path d="M23 92.073c1.294.832 2.628 1.606 4 2.318v-88.783c-1.372.712-2.706 1.486-4 2.319v84.146zM69 96.253c1.365-.562 2.698-1.186 4-1.861v-6.392h-4v8.253zM46 64v35.826c1.321.104 2.652.174 4 .174v-36h-4z"/></g><path fill="#C9CCCD" d="M23 92.073c.333.214.662.435 1 .642v-85.429c-.338.207-.667.427-1 .641v84.146z"/><path fill="#CCD0D2" d="M45 56h6v7c0 .553-.447 1-1 1h-4c-.553 0-1-.447-1-1v-7z"/><path fill="#B7BBBD" d="M46 63v-7h-1v7c0 .553.447 1 1 1h1c-.553 0-1-.447-1-1z"/><g fill="#B7BBBD"><path d="M23 77v-6h-1v6c0 .553.447 1 1 1h1c-.553 0-1-.447-1-1zM23 23c0-.553.447-1 1-1h-1c-.553 0-1 .447-1 1v6h1v-6z"/></g><path fill="#CCD0D2" d="M27 22h-4c-.553 0-1 .447-1 1v6h6v-6c0-.553-.447-1-1-1zm-5 55c0 .553.447 1 1 1h4c.553 0 1-.447 1-1v-6h-6v6z"/><path fill="#F4F4F7" d="M23 28h4c1.657 0 3 1.344 3 3v38c0 1.657-1.343 3-3 3h-4c-1.657 0-3-1.343-3-3v-38c0-1.656 1.343-3 3-3zM64 21c0-6.627-3.979-12-13-12-6.627 0-12 5.373-12 12 0 4.011 1.976 7.554 5 9.733v24.267c0 1.104 1.791 2 4 2s4-.896 4-2v-22.039c8.125-.398 12-5.593 12-11.961z"/><path fill="#EAEAED" d="M42 21c0-6.191 4.69-11.285 10.711-11.929-.55-.045-1.118-.071-1.711-.071-6.627 0-12 5.373-12 12 0 4.011 1.976 7.554 5 9.733v24.267c0 1.104 1.791 2 4 2 .531 0 1.036-.055 1.5-.148-1.465-.297-2.5-1.013-2.5-1.852v-22.698c1.253.444 2.595.698 4 .698.587 0 1.15-.027 1.695-.074-6.012-.65-10.695-5.74-10.695-11.926z"/><g fill="#7D7E80"><path d="M62.5 15c-.828 0-1.5.783-1.5 1.75v8.5c0 .967.672 1.75 1.5 1.75l.104-.012c.928-1.763 1.396-3.803 1.396-5.988 0-2.18-.44-4.219-1.34-5.981l-.16-.019zM51 20.5c0-.828-.672-1.5-1.5-1.5h-3c-.828 0-1.5.672-1.5 1.5s.672 1.5 1.5 1.5h3c.828 0 1.5-.672 1.5-1.5z"/></g><path fill="#CCD0D2" d="M68 81h6v7c0 .553-.447 1-1 1h-4c-.553 0-1-.447-1-1v-7z"/><path fill="#B7BBBD" d="M69 88v-7h-1v7c0 .553.447 1 1 1h1c-.553 0-1-.447-1-1z"/><path fill="#F4F4F7" d="M71 33c6.627 0 12 5.148 12 11.5s-5.373 11.5-12 11.5-12-5.148-12-11.5 5.373-11.5 12-11.5z"/><path fill="#7D7E80" d="M71 38c.553 0 1 .447 1 1v2c0 .553-.447 1-1 1s-1-.447-1-1v-2c0-.553.447-1 1-1z"/><path fill="#F4F4F7" d="M77 49h-6l-6-1c2.103 2.104 2 7 2 7v25c0 1.104 1.791 2 4 2s4-.896 4-2v-25s-.103-3.896 2-6z"/><g fill="#E8E8EA"><path d="M67 55s.038-1.874-.43-3.802c-3.344-2.04-5.57-5.616-5.57-9.698 0-1.632.359-3.182.999-4.588-1.861 2.026-2.999 4.676-2.999 7.588 0 5.005 3.343 9.251 8 10.832v-.332zM75.212 52.789c-.237 1.237-.212 2.211-.212 2.211v.337c3.138-1.066 5.679-3.342 7.001-6.249-1.735 1.889-4.105 3.218-6.789 3.701z"/></g><path fill="#C9CCCD" d="M46 99.826l1 .076v-35.902h-1v35.826zM69 96.253c.336-.138.668-.28 1-.425v-7.828h-1v8.253z"/><path fill="#E8E8EA" d="M23 69v-38c0-1.656 1.343-3 3-3h-3c-1.657 0-3 1.344-3 3v38c0 1.657 1.343 3 3 3h3c-1.657 0-3-1.343-3-3z"/><path fill="#E9EAEE" d="M24 41h2c1.104 0 2 .896 2 2v16c0 1.104-.896 2-2 2h-2c-1.104 0-2-.896-2-2v-16c0-1.104.896-2 2-2z"/><path fill="#D1D2D6" d="M26 41h-2c-1.104 0-2 .896-2 2v2c0-1.104.896-2 2-2h2c1.104 0 2 .896 2 2v-2c0-1.104-.896-2-2-2z"/><path fill="#FDFDFD" d="M26 59h-2c-1.104 0-2-.896-2-2v2c0 1.104.896 2 2 2h2c1.104 0 2-.896 2-2v-2c0 1.104-.896 2-2 2z"/></svg>

<svg xmlns="http://www.w3.org/2000/svg" width="100" height="100" viewBox="0 0 100 100"><path fill="#E37948" d="M50 0c27.614 0 50 22.386 50 50s-22.386 50-50 50S0 77.614 0 50 22.386 0 50 0z"/><path d="M70 33c-6.627 0-12 5.148-12 11.5 0 5.006 3.343 9.25 8 10.832V80c0 .504.385.96 1 1.31V88c0 .553.447 1 1 1v7.647c1.362-.526 2.698-1.104 4-1.743V89c.553 0 1-.447 1-1v-6.69c.615-.35 1-.806 1-1.31V55.332c4.658-1.58 8-5.826 8-10.832C82 38.148 76.628 33 70 33zM26 93.87V78c.553 0 1-.447 1-1v-5.184c1.162-.413 2-1.512 2-2.816V31c0-1.305-.838-2.402-2-2.816V23c0-.552-.447-1-1-1V6.13c-1.373.754-2.71 1.566-4 2.44V22c-.552 0-1 .448-1 1v5.184c-1.162.414-2 1.512-2 2.816v38c0 1.305.838 2.403 2 2.816V77c0 .553.448 1 1 1v13.43c1.29.874 2.627 1.686 4 2.44zm24-37.56c.615-.35 1-.806 1-1.31V32.96c5.34-.26 8.842-2.592 10.613-5.974.775-.068 1.387-.814 1.387-1.736v-8.5c0-.902-.588-1.637-1.34-1.73C59.826 11.426 56.053 9 50 9c-6.627 0-12 5.373-12 12 0 4.012 1.976 7.555 5 9.733V55c0 .504.385.96 1 1.31V63c0 .553.448 1 1 1v35.75c1.318.13 2.654.198 4 .225V64c.553 0 1-.447 1-1v-6.69z" fill="#CC6D41"/><path d="M23 92.073c1.294.832 2.628 1.606 4 2.318V5.61c-1.372.712-2.706 1.486-4 2.32v84.145zm46 4.18c1.365-.562 2.698-1.186 4-1.86V88h-4v8.253zM46 64v35.826c1.32.104 2.652.174 4 .174V64h-4z" fill="#E0E3E4"/><path fill="#C9CCCD" d="M23 92.073c.333.214.662.435 1 .642V7.285c-.338.208-.667.428-1 .642v84.146z"/><path fill="#CCD0D2" d="M45 56h6v7c0 .553-.447 1-1 1h-4c-.553 0-1-.447-1-1v-7z"/><path fill="#B7BBBD" d="M46 63v-7h-1v7c0 .553.447 1 1 1h1c-.553 0-1-.447-1-1zM23 77v-6h-1v6c0 .553.447 1 1 1h1c-.553 0-1-.447-1-1zm0-54c0-.553.447-1 1-1h-1c-.553 0-1 .447-1 1v6h1v-6z"/><path fill="#CCD0D2" d="M27 22h-4c-.553 0-1 .447-1 1v6h6v-6c0-.553-.447-1-1-1zm-5 55c0 .553.447 1 1 1h4c.553 0 1-.447 1-1v-6h-6v6z"/><path fill="#F4F4F7" d="M23 28h4c1.657 0 3 1.344 3 3v38c0 1.657-1.343 3-3 3h-4c-1.657 0-3-1.343-3-3V31c0-1.656 1.343-3 3-3zm41-7c0-6.627-3.98-12-13-12-6.627 0-12 5.373-12 12 0 4.01 1.976 7.554 5 9.733V55c0 1.104 1.79 2 4 2s4-.896 4-2V32.96c8.125-.397 12-5.592 12-11.96z"/><path fill="#EAEAED" d="M42 21c0-6.19 4.69-11.285 10.71-11.93C52.16 9.027 51.594 9 51 9c-6.627 0-12 5.373-12 12 0 4.01 1.976 7.554 5 9.733V55c0 1.104 1.79 2 4 2 .53 0 1.036-.055 1.5-.148C48.035 56.555 47 55.84 47 55V32.302c1.253.444 2.595.698 4 .698.587 0 1.15-.027 1.695-.074C46.683 32.276 42 27.186 42 21z"/><path d="M62.5 15c-.828 0-1.5.783-1.5 1.75v8.5c0 .967.672 1.75 1.5 1.75l.104-.012C63.532 25.225 64 23.185 64 21c0-2.18-.44-4.22-1.34-5.98L62.5 15zM51 20.5c0-.828-.672-1.5-1.5-1.5h-3c-.828 0-1.5.672-1.5 1.5s.672 1.5 1.5 1.5h3c.828 0 1.5-.672 1.5-1.5z" fill="#7D7E80"/><path fill="#CCD0D2" d="M68 81h6v7c0 .553-.447 1-1 1h-4c-.553 0-1-.447-1-1v-7z"/><path fill="#B7BBBD" d="M69 88v-7h-1v7c0 .553.447 1 1 1h1c-.553 0-1-.447-1-1z"/><path fill="#F4F4F7" d="M71 33c6.627 0 12 5.148 12 11.5S77.627 56 71 56s-12-5.148-12-11.5S64.373 33 71 33z"/><path fill="#7D7E80" d="M71 38c.553 0 1 .447 1 1v2c0 .553-.447 1-1 1s-1-.447-1-1v-2c0-.553.447-1 1-1z"/><path fill="#F4F4F7" d="M77 49h-6l-6-1c2.103 2.104 2 7 2 7v25c0 1.104 1.79 2 4 2s4-.896 4-2V55s-.103-3.896 2-6z"/><path d="M67 55s.038-1.874-.43-3.802C63.226 49.158 61 45.582 61 41.5c0-1.632.36-3.182 1-4.588-1.862 2.026-3 4.676-3 7.588 0 5.005 3.343 9.25 8 10.832V55zm8.212-2.21C74.975 54.025 75 55 75 55v.337c3.138-1.066 5.68-3.342 7-6.25-1.734 1.89-4.104 3.22-6.788 3.702z" fill="#E8E8EA"/><path fill="#C9CCCD" d="M46 99.826l1 .076V64h-1v35.826zm23-3.573c.336-.138.668-.28 1-.425V88h-1v8.253z"/><path fill="#E8E8EA" d="M23 69V31c0-1.656 1.343-3 3-3h-3c-1.657 0-3 1.344-3 3v38c0 1.657 1.343 3 3 3h3c-1.657 0-3-1.343-3-3z"/><path fill="#E9EAEE" d="M24 41h2c1.104 0 2 .896 2 2v16c0 1.104-.896 2-2 2h-2c-1.104 0-2-.896-2-2V43c0-1.104.896-2 2-2z"/><path fill="#D1D2D6" d="M26 41h-2c-1.104 0-2 .896-2 2v2c0-1.104.896-2 2-2h2c1.104 0 2 .896 2 2v-2c0-1.104-.896-2-2-2z"/><path fill="#FDFDFD" d="M26 59h-2c-1.104 0-2-.896-2-2v2c0 1.104.896 2 2 2h2c1.104 0 2-.896 2-2v-2c0 1.104-.896 2-2 2z"/></svg>
